src/static/rai.svg

<svg width="62" height="62" viewBox="0 0 62 62" fill="none" xmlns="http://www.w3.org/2000/svg">
<g clip-path="url(#clip0)">
<path d="M61.9877 0.00817871H-0.000262944V62.0001H61.9877V0.00817871V0.00817871ZM12.4806 30.2724H13.1031C15.2006 30.2724 17.5653 29.8846 17.5653 27.1888C17.5653 24.5008 15.2006 24.105 13.1031 24.105H12.4806V30.2724V30.2724ZM26.6306 43.9336H18.6199L12.5454 34.4113H12.4806V43.9336H6.04627V19.1741H15.6615C20.5562 19.1741 24.2662 21.51 24.2662 26.7927C24.2662 30.212 22.3585 33.1667 18.8465 33.7888L26.6306 43.9336V43.9336ZM33.0449 35.531C33.0449 37.661 34.4557 39.3059 36.8886 39.3059C39.3177 39.3059 40.7282 37.661 40.7282 35.531C40.7282 33.4615 39.3177 31.7236 36.8886 31.7236C34.4557 31.7236 33.0449 33.4615 33.0449 35.531ZM46.5038 43.9336H40.5342V42.0665H40.4616C39.4148 43.7395 37.3495 44.4913 35.373 44.4913C30.3813 44.4913 26.8693 40.3202 26.8693 35.4945C26.8693 30.6686 30.3249 26.5298 35.3125 26.5298C37.2445 26.5298 39.2855 27.2533 40.5342 28.7326V27.0918H46.5038V43.9336V43.9336ZM56.5475 20.6209C56.5475 22.4638 55.0319 23.9717 53.1971 23.9717C51.3622 23.9717 49.8466 22.4638 49.8466 20.6209C49.8466 18.786 51.3622 17.2785 53.1971 17.2785C55.0319 17.2785 56.5475 18.786 56.5475 20.6209ZM56.1839 43.9336H50.2142V27.0918H56.1839V43.9336ZM-0.000182345 51.1482V23.7695V17.998V10.1853H-0.306152L-0.000182345 51.1482Z" fill="black"/>
</g>
<defs>
<clipPath id="clip0">
<path d="M0 0H62V62H0V0Z" fill="white"/>
</clipPath>
</defs>
</svg>

<svg xmlns="http://www.w3.org/2000/svg" viewBox="0 0 62 62">
  <path d="M61.988.008H0V62h61.988V.008zM12.48 30.272h.622c2.098 0 4.462-.387 4.462-3.083 0-2.688-2.364-3.084-4.462-3.084h-.622v6.167zm14.15 13.662H18.62l-6.075-9.523h-.064v9.523H6.046v-24.76h9.616c4.894 0 8.604 2.336 8.604 7.619 0 3.419-1.907 6.374-5.42 6.996l7.785 10.145zm6.414-8.403c0 2.13 1.41 3.775 3.844 3.775 2.429 0 3.84-1.645 3.84-3.775 0-2.07-1.411-3.807-3.84-3.807-2.433 0-3.844 1.738-3.844 3.807zm13.459 8.403h-5.97v-1.867h-.072c-1.047 1.672-3.113 2.424-5.089 2.424-4.992 0-8.504-4.17-8.504-8.996 0-4.826 3.456-8.965 8.444-8.965 1.931 0 3.972.723 5.221 2.203v-1.641h5.97v16.842zM56.548 20.62a3.366 3.366 0 01-3.35 3.35 3.366 3.366 0 01-3.351-3.35c0-1.835 1.515-3.342 3.35-3.342 1.835 0 3.35 1.507 3.35 3.342zm-.364 23.313h-5.97V27.092h5.97v16.842zM0 51.148V10.185h-.306L0 51.148z"/>
</svg>
